X:334
T:Reel 334
M:4/4
K:Amix
L:1/8
EDFD E2GE|DB,B,A, B,G,D2|CDEF GFGE|DB,EB, A,A,A,2|EAEG F2DC|B,CDB, E2DB,|CB,CD E2FG|AAGD B,A,A,2|A2BA GEEF|GEEF GED2|ABAF GFED|B,CDB, CA,A,2|AGBG AGED|CDEF G2EA|BcBA GEFG|EDB,D CA,A,2|
